X: 3112
T: CAPTAIN ROSS
Q:"Reel."
R: Reel.
%R:reel
B: James Kerr "Merry Melodies" v.3 p.14 #112
Z: 2016 John Chambers <jc:trillian.mit.edu>
M: C
L: 1/8
K: A
uc |\
E2-Ec BAFB | A/A/A (cA) eAcA |\
E2-Ec BAFf | ecdB A/A/A A :|
|: f |\
(ef/g/ a)c BAFf | (ef/g/ a)e feae |\
(f/g/a) (ec) BAFf |[1 efac A/A/A A :|\
[2 ecdB A/A/A A |]

%%sep 1 1 500
%%sep 1 1 500

